X: 4663
T: Boy In The Gap, The
R: reel
M: 4/4
K: Dmajor
D2FA d3c|A3c cAGE|D2FA d3c|A2GE EDDE|
D2FA d3c|A3c cAGE|D2FA dedc|A2GE FDD2|
(f4 f)edf|(e4 e)dcB|ABcd edcd|e2ag eaag|
(f4 f)edf|(e4 e)dcB|ABcd e2dc|A2GE EDD2|
d~f3 dffd|c~e3 cege|dffe f3(g|g)age fdde|
f4fdAF|AGEF GBAF|D2FA dedc|A/B/AGE EDDE|

